; G-Code generated by Simplify3D(R) Version 4.0.1
; Jan 8, 2024 at 11:55:42 AM
; Settings Summary
;   processName,Process1
;   applyToModels,3side wall
;   profileName,Default (modified)
;   profileVersion,2017-03-01 08:00:00
;   baseProfile,
;   printMaterial,PLA
;   printQuality,Medium
;   printExtruders,
;   extruderName,Primary Extruder
;   extruderToolheadNumber,0
;   extruderDiameter,0.4
;   extruderAutoWidth,0
;   extruderWidth,0.4
;   extrusionMultiplier,0.94
;   extruderUseRetract,1
;   extruderRetractionDistance,0.8
;   extruderExtraRestartDistance,0
;   extruderRetractionZLift,0
;   extruderRetractionSpeed,1500
;   extruderUseCoasting,0
;   extruderCoastingDistance,0.2
;   extruderUseWipe,0
;   extruderWipeDistance,5
;   primaryExtruder,0
;   layerHeight,0.12
;   topSolidLayers,5
;   bottomSolidLayers,5
;   perimeterOutlines,2
;   printPerimetersInsideOut,1
;   startPointOption,3
;   startPointOriginX,0
;   startPointOriginY,0
;   sequentialIslands,0
;   spiralVaseMode,0
;   firstLayerHeightPercentage,180
;   firstLayerWidthPercentage,120
;   firstLayerUnderspeed,0.5
;   useRaft,0
;   raftExtruder,0
;   raftTopLayers,3
;   raftBaseLayers,2
;   raftOffset,3
;   raftSeparationDistance,0.14
;   raftTopInfill,100
;   aboveRaftSpeedMultiplier,0.3
;   useSkirt,1
;   skirtExtruder,0
;   skirtLayers,1
;   skirtOutlines,3
;   skirtOffset,0
;   usePrimePillar,0
;   primePillarExtruder,999
;   primePillarWidth,12
;   primePillarLocation,7
;   primePillarSpeedMultiplier,1
;   useOozeShield,0
;   oozeShieldExtruder,999
;   oozeShieldOffset,2
;   oozeShieldOutlines,1
;   oozeShieldSidewallShape,1
;   oozeShieldSidewallAngle,30
;   oozeShieldSpeedMultiplier,1
;   infillExtruder,0
;   internalInfillPattern,Rectilinear
;   externalInfillPattern,Rectilinear
;   infillPercentage,15
;   outlineOverlapPercentage,15
;   infillExtrusionWidthPercentage,100
;   minInfillLength,5
;   infillLayerInterval,1
;   internalInfillAngles,45,-45
;   overlapInternalInfillAngles,0
;   externalInfillAngles,45,-45
;   generateSupport,1
;   supportExtruder,0
;   supportInfillPercentage,30
;   supportExtraInflation,0
;   supportBaseLayers,0
;   denseSupportExtruder,0
;   denseSupportLayers,0
;   denseSupportInfillPercentage,70
;   supportLayerInterval,1
;   supportHorizontalPartOffset,0.3
;   supportUpperSeparationLayers,1
;   supportLowerSeparationLayers,1
;   supportType,0
;   supportGridSpacing,4
;   maxOverhangAngle,45
;   supportAngles,0
;   temperatureName,Primary Extruder,????
;   temperatureNumber,0,0
;   temperatureSetpointCount,1,1
;   temperatureSetpointLayers,1,1
;   temperatureSetpointTemperatures,280,110
;   temperatureStabilizeAtStartup,1,1
;   temperatureHeatedBed,0,1
;   temperatureRelayBetweenLayers,0,0
;   temperatureRelayBetweenLoops,0,0
;   fanLayers,1,2
;   fanSpeeds,0,100
;   blipFanToFullPower,0
;   adjustSpeedForCooling,1
;   minSpeedLayerTime,15
;   minCoolingSpeedSlowdown,20
;   increaseFanForCooling,0
;   minFanLayerTime,30
;   maxCoolingFanSpeed,10
;   increaseFanForBridging,0
;   bridgingFanSpeed,100
;   use5D,1
;   relativeEdistances,0
;   allowEaxisZeroing,1
;   independentExtruderAxes,0
;   includeM10123,0
;   stickySupport,1
;   applyToolheadOffsets,0
;   gcodeXoffset,0
;   gcodeYoffset,0
;   gcodeZoffset,0
;   overrideMachineDefinition,0
;   machineTypeOverride,0
;   strokeXoverride,200
;   strokeYoverride,200
;   strokeZoverride,200
;   originOffsetXoverride,0
;   originOffsetYoverride,0
;   originOffsetZoverride,0
;   homeXdirOverride,-1
;   homeYdirOverride,-1
;   homeZdirOverride,-1
;   flipXoverride,1
;   flipYoverride,-1
;   flipZoverride,1
;   toolheadOffsets,0,0|0,0|0,0|0,0|0,0|0,0
;   overrideFirmwareConfiguration,0
;   firmwareTypeOverride,RepRap (Marlin/Repetier/Sprinter)
;   GPXconfigOverride,r2
;   baudRateOverride,115200
;   overridePrinterModels,0
;   printerModelsOverride
;   startingGcode,G28 ; home all axes
;   layerChangeGcode,
;   retractionGcode,
;   toolChangeGcode,
;   endingGcode,M104 S0 ; turn off extruder,M140 S0 ; turn off bed,M84 ; disable motors
;   exportFileFormat,gcode
;   celebration,0
;   celebrationSong,Random Song
;   postProcessing,
;   defaultSpeed,1200
;   outlineUnderspeed,1
;   solidInfillUnderspeed,1.8
;   supportUnderspeed,0.7
;   rapidXYspeed,4800
;   rapidZspeed,1000
;   minBridgingArea,50
;   bridgingExtraInflation,0
;   bridgingExtrusionMultiplier,1
;   bridgingSpeedMultiplier,1
;   useFixedBridgingAngle,0
;   fixedBridgingAngle,0
;   applyBridgingToPerimeters,0
;   filamentDiameters,1.75|1.75|1.75|1.75|1.75|1.75
;   filamentPricesPerKg,46|46|46|46|46|46
;   filamentDensities,1.25|1.25|1.25|1.25|1.25|1.25
;   useMinPrintHeight,0
;   minPrintHeight,0
;   useMaxPrintHeight,0
;   maxPrintHeight,0
;   useDiaphragm,0
;   diaphragmLayerInterval,20
;   robustSlicing,1
;   mergeAllIntoSolid,0
;   onlyRetractWhenCrossingOutline,1
;   retractBetweenLayers,1
;   useRetractionMinTravel,0
;   retractionMinTravel,3
;   retractWhileWiping,0
;   onlyWipeOutlines,1
;   avoidCrossingOutline,0
;   maxMovementDetourFactor,3
;   toolChangeRetractionDistance,12
;   toolChangeExtraRestartDistance,-0.5
;   toolChangeRetractionSpeed,600
;   externalThinWallType,1
;   internalThinWallType,1
;   thinWallAllowedOverlapPercentage,10
;   singleExtrusionMinLength,1
;   singleExtrusionMinPrintingWidthPercentage,50
;   singleExtrusionMaxPrintingWidthPercentage,200
;   singleExtrusionEndpointExtension,0.2
;   horizontalSizeCompensation,0
G90
M82
M106 S0
M140 S110
M190 S110
M104 S280 T0
M109 S280 T0
G28 ; home all axes
G92 E0
G1 E-0.8000 F1500
G1 Z0.216 F1000
; process Process1
; layer 1, Z = 0.216
T0
; tool H0.216 W0.480
; skirt
G1 X67.499 Y76.000 F4800
G1 E0.0000 F450
G92 E0
G1 X118.327 Y76.000 E2.0595 F434
G1 X118.913 Y76.586 E2.0931
G1 X118.913 Y107.414 E3.3422
G1 X118.327 Y108.000 E3.3758
G1 X116.999 Y108.000 E3.4296
G1 X116.413 Y107.414 E3.4632
G1 X116.413 Y78.500 E4.6347
G1 X69.413 Y78.500 E6.5391
G1 X69.413 Y107.414 E7.7107
G1 X68.827 Y108.000 E7.7443
G1 X67.499 Y108.000 E7.7981
G1 X66.913 Y107.414 E7.8317
G1 X66.913 Y76.586 E9.0808
G1 X67.499 Y76.000 E9.1144
G1 X67.664 Y76.400 F4800
G92 E0
G1 X118.162 Y76.400 E2.0461 F434
G1 X118.513 Y76.751 E2.0662
G1 X118.513 Y107.249 E3.3019
G1 X118.162 Y107.600 E3.3221
G1 X117.164 Y107.600 E3.3625
G1 X116.813 Y107.249 E3.3826
G1 X116.813 Y78.100 E4.5637
G1 X69.013 Y78.100 E6.5005
G1 X69.013 Y107.249 E7.6815
G1 X68.662 Y107.600 E7.7017
G1 X67.664 Y107.600 E7.7421
G1 X67.313 Y107.249 E7.7622
G1 X67.313 Y76.751 E8.9979
G1 X67.664 Y76.400 E9.0181
G1 X67.830 Y76.800 F4800
G92 E0
G1 X117.996 Y76.800 E2.0327 F434
G1 X118.113 Y76.917 E2.0394
G1 X118.113 Y107.083 E3.2616
G1 X117.996 Y107.200 E3.2684
G1 X117.330 Y107.200 E3.2953
G1 X117.213 Y107.083 E3.3020
G1 X117.213 Y77.700 E4.4926
G1 X68.613 Y77.700 E6.4618
G1 X68.613 Y107.083 E7.6524
G1 X68.496 Y107.200 E7.6591
G1 X67.830 Y107.200 E7.6861
G1 X67.713 Y107.083 E7.6928
G1 X67.713 Y76.917 E8.9151
G1 X67.830 Y76.800 E8.9218
G92 E0
G1 E-0.8000 F1500
; external single extrusion
G1 X68.163 Y106.880 F4800
G1 E0.0000 F1500
G92 E0
; tool H0.216 W0.500
G1 X68.163 Y77.580 E1.2367 F434
G1 X68.163 Y77.500 E1.2401
; tool H0.216 W0.510
G1 X68.173 Y77.401 E1.2444
; tool H0.216 W0.553
G1 X68.206 Y77.293 E1.2496
G1 X68.314 Y77.260 E1.2549
; tool H0.216 W0.510
G1 X68.413 Y77.250 E1.2592
; tool H0.216 W0.500
G1 X68.493 Y77.250 E1.2625
G1 X117.333 Y77.250 E3.3239
G1 X117.413 Y77.250 E3.3273
; tool H0.216 W0.510
G1 X117.512 Y77.260 E3.3316
; tool H0.216 W0.553
G1 X117.620 Y77.293 E3.3369
G1 X117.653 Y77.401 E3.3421
; tool H0.216 W0.510
G1 X117.663 Y77.500 E3.3464
; tool H0.216 W0.500
G1 X117.663 Y77.580 E3.3498
G1 X117.663 Y106.880 E4.5865
G92 E0
G1 E-0.8000 F1500
; layer 2, Z = 0.336
M106 S255
; tool H0.120 W0.400
G1 X68.163 Y106.880 F4800
G1 Z0.336 F1000
G1 E0.0000 F1500
G92 E0
; tool H0.120 W0.500
G1 X68.163 Y77.580 E0.6870 F434
G1 X68.163 Y77.500 E0.6889
; tool H0.120 W0.510
G1 X68.173 Y77.401 E0.6913
; tool H0.120 W0.553
G1 X68.206 Y77.293 E0.6942
G1 X68.314 Y77.260 E0.6971
; tool H0.120 W0.510
G1 X68.413 Y77.250 E0.6995
; tool H0.120 W0.500
G1 X68.493 Y77.250 E0.7014
G1 X117.333 Y77.250 E1.8466
G1 X117.413 Y77.250 E1.8485
; tool H0.120 W0.510
G1 X117.512 Y77.260 E1.8509
; tool H0.120 W0.553
G1 X117.620 Y77.293 E1.8538
G1 X117.653 Y77.401 E1.8567
; tool H0.120 W0.510
G1 X117.663 Y77.500 E1.8591
; tool H0.120 W0.500
G1 X117.663 Y77.580 E1.8610
G1 X117.663 Y106.880 E2.5480
G92 E0
G1 E-0.8000 F1500
; layer 3, Z = 0.456
; tool H0.120 W0.400
G1 X68.163 Y106.880 F4800
G1 Z0.456 F1000
G1 E0.0000 F1500
G92 E0
; tool H0.120 W0.500
G1 X68.163 Y77.580 E0.6870 F434
G1 X68.163 Y77.500 E0.6889
; tool H0.120 W0.510
G1 X68.173 Y77.401 E0.6913
; tool H0.120 W0.553
G1 X68.206 Y77.293 E0.6942
G1 X68.314 Y77.260 E0.6971
; tool H0.120 W0.510
G1 X68.413 Y77.250 E0.6995
; tool H0.120 W0.500
G1 X68.493 Y77.250 E0.7014
G1 X117.333 Y77.250 E1.8466
G1 X117.413 Y77.250 E1.8485
; tool H0.120 W0.510
G1 X117.512 Y77.260 E1.8509
; tool H0.120 W0.553
G1 X117.620 Y77.293 E1.8538
G1 X117.653 Y77.401 E1.8567
; tool H0.120 W0.510
G1 X117.663 Y77.500 E1.8591
; tool H0.120 W0.500
G1 X117.663 Y77.580 E1.8610
G1 X117.663 Y106.880 E2.5480
G92 E0
G1 E-0.8000 F1500
; layer 4, Z = 0.576
; tool H0.120 W0.400
G1 X68.163 Y106.880 F4800
G1 Z0.576 F1000
G1 E0.0000 F1500
G92 E0
; tool H0.120 W0.500
G1 X68.163 Y77.580 E0.6870 F434
G1 X68.163 Y77.500 E0.6889
; tool H0.120 W0.510
G1 X68.173 Y77.401 E0.6913
; tool H0.120 W0.553
G1 X68.206 Y77.293 E0.6942
G1 X68.314 Y77.260 E0.6971
; tool H0.120 W0.510
G1 X68.413 Y77.250 E0.6995
; tool H0.120 W0.500
G1 X68.493 Y77.250 E0.7014
G1 X117.333 Y77.250 E1.8466
G1 X117.413 Y77.250 E1.8485
; tool H0.120 W0.510
G1 X117.512 Y77.260 E1.8509
; tool H0.120 W0.553
G1 X117.620 Y77.293 E1.8538
G1 X117.653 Y77.401 E1.8567
; tool H0.120 W0.510
G1 X117.663 Y77.500 E1.8591
; tool H0.120 W0.500
G1 X117.663 Y77.580 E1.8610
G1 X117.663 Y106.880 E2.5480
G92 E0
G1 E-0.8000 F1500
; layer 5, Z = 0.696
; tool H0.120 W0.400
G1 X68.163 Y106.880 F4800
G1 Z0.696 F1000
G1 E0.0000 F1500
G92 E0
; tool H0.120 W0.500
G1 X68.163 Y77.580 E0.6870 F434
G1 X68.163 Y77.500 E0.6889
; tool H0.120 W0.510
G1 X68.173 Y77.401 E0.6913
; tool H0.120 W0.553
G1 X68.206 Y77.293 E0.6942
G1 X68.314 Y77.260 E0.6971
; tool H0.120 W0.510
G1 X68.413 Y77.250 E0.6995
; tool H0.120 W0.500
G1 X68.493 Y77.250 E0.7014
G1 X117.333 Y77.250 E1.8466
G1 X117.413 Y77.250 E1.8485
; tool H0.120 W0.510
G1 X117.512 Y77.260 E1.8509
; tool H0.120 W0.553
G1 X117.620 Y77.293 E1.8538
G1 X117.653 Y77.401 E1.8567
; tool H0.120 W0.510
G1 X117.663 Y77.500 E1.8591
; tool H0.120 W0.500
G1 X117.663 Y77.580 E1.8610
G1 X117.663 Y106.880 E2.5480
G92 E0
G1 E-0.8000 F1500
; layer 6, Z = 0.816
; tool H0.120 W0.400
G1 X68.163 Y106.880 F4800
G1 Z0.816 F1000
G1 E0.0000 F1500
G92 E0
; tool H0.120 W0.500
G1 X68.163 Y77.580 E0.6870 F434
G1 X68.163 Y77.500 E0.6889
; tool H0.120 W0.510
G1 X68.173 Y77.401 E0.6913
; tool H0.120 W0.553
G1 X68.206 Y77.293 E0.6942
G1 X68.314 Y77.260 E0.6971
; tool H0.120 W0.510
G1 X68.413 Y77.250 E0.6995
; tool H0.120 W0.500
G1 X68.493 Y77.250 E0.7014
G1 X117.333 Y77.250 E1.8466
G1 X117.413 Y77.250 E1.8485
; tool H0.120 W0.510
G1 X117.512 Y77.260 E1.8509
; tool H0.120 W0.553
G1 X117.620 Y77.293 E1.8538
G1 X117.653 Y77.401 E1.8567
; tool H0.120 W0.510
G1 X117.663 Y77.500 E1.8591
; tool H0.120 W0.500
G1 X117.663 Y77.580 E1.8610
G1 X117.663 Y106.880 E2.5480
G92 E0
G1 E-0.8000 F1500
; layer 7, Z = 0.936
; tool H0.120 W0.400
G1 X68.163 Y106.880 F4800
G1 Z0.936 F1000
G1 E0.0000 F1500
G92 E0
; tool H0.120 W0.500
G1 X68.163 Y77.580 E0.6870 F434
G1 X68.163 Y77.500 E0.6889
; tool H0.120 W0.510
G1 X68.173 Y77.401 E0.6913
; tool H0.120 W0.553
G1 X68.206 Y77.293 E0.6942
G1 X68.314 Y77.260 E0.6971
; tool H0.120 W0.510
G1 X68.413 Y77.250 E0.6995
; tool H0.120 W0.500
G1 X68.493 Y77.250 E0.7014
G1 X117.333 Y77.250 E1.8466
G1 X117.413 Y77.250 E1.8485
; tool H0.120 W0.510
G1 X117.512 Y77.260 E1.8509
; tool H0.120 W0.553
G1 X117.620 Y77.293 E1.8538
G1 X117.653 Y77.401 E1.8567
; tool H0.120 W0.510
G1 X117.663 Y77.500 E1.8591
; tool H0.120 W0.500
G1 X117.663 Y77.580 E1.8610
G1 X117.663 Y106.880 E2.5480
G92 E0
G1 E-0.8000 F1500
; layer 8, Z = 1.056
; tool H0.120 W0.400
G1 X68.163 Y106.880 F4800
G1 Z1.056 F1000
G1 E0.0000 F1500
G92 E0
; tool H0.120 W0.500
G1 X68.163 Y77.580 E0.6870 F434
G1 X68.163 Y77.500 E0.6889
; tool H0.120 W0.510
G1 X68.173 Y77.401 E0.6913
; tool H0.120 W0.553
G1 X68.206 Y77.293 E0.6942
G1 X68.314 Y77.260 E0.6971
; tool H0.120 W0.510
G1 X68.413 Y77.250 E0.6995
; tool H0.120 W0.500
G1 X68.493 Y77.250 E0.7014
G1 X117.333 Y77.250 E1.8466
G1 X117.413 Y77.250 E1.8485
; tool H0.120 W0.510
G1 X117.512 Y77.260 E1.8509
; tool H0.120 W0.553
G1 X117.620 Y77.293 E1.8538
G1 X117.653 Y77.401 E1.8567
; tool H0.120 W0.510
G1 X117.663 Y77.500 E1.8591
; tool H0.120 W0.500
G1 X117.663 Y77.580 E1.8610
G1 X117.663 Y106.880 E2.5480
G92 E0
G1 E-0.8000 F1500
; layer 9, Z = 1.176
; tool H0.120 W0.400
G1 X68.163 Y106.880 F4800
G1 Z1.176 F1000
G1 E0.0000 F1500
G92 E0
; tool H0.120 W0.500
G1 X68.163 Y77.580 E0.6870 F434
G1 X68.163 Y77.500 E0.6889
; tool H0.120 W0.510
G1 X68.173 Y77.401 E0.6913
; tool H0.120 W0.553
G1 X68.206 Y77.293 E0.6942
G1 X68.314 Y77.260 E0.6971
; tool H0.120 W0.510
G1 X68.413 Y77.250 E0.6995
; tool H0.120 W0.500
G1 X68.493 Y77.250 E0.7014
G1 X117.333 Y77.250 E1.8466
G1 X117.413 Y77.250 E1.8485
; tool H0.120 W0.510
G1 X117.512 Y77.260 E1.8509
; tool H0.120 W0.553
G1 X117.620 Y77.293 E1.8538
G1 X117.653 Y77.401 E1.8567
; tool H0.120 W0.510
G1 X117.663 Y77.500 E1.8591
; tool H0.120 W0.500
G1 X117.663 Y77.580 E1.8610
G1 X117.663 Y106.880 E2.5480
G92 E0
G1 E-0.8000 F1500
; layer 10, Z = 1.296
; tool H0.120 W0.400
G1 X68.163 Y106.880 F4800
G1 Z1.296 F1000
G1 E0.0000 F1500
G92 E0
; tool H0.120 W0.500
G1 X68.163 Y77.580 E0.6870 F434
G1 X68.163 Y77.500 E0.6889
; tool H0.120 W0.510
G1 X68.173 Y77.401 E0.6913
; tool H0.120 W0.553
G1 X68.206 Y77.293 E0.6942
G1 X68.314 Y77.260 E0.6971
; tool H0.120 W0.510
G1 X68.413 Y77.250 E0.6995
; tool H0.120 W0.500
G1 X68.493 Y77.250 E0.7014
G1 X117.333 Y77.250 E1.8466
G1 X117.413 Y77.250 E1.8485
; tool H0.120 W0.510
G1 X117.512 Y77.260 E1.8509
; tool H0.120 W0.553
G1 X117.620 Y77.293 E1.8538
G1 X117.653 Y77.401 E1.8567
; tool H0.120 W0.510
G1 X117.663 Y77.500 E1.8591
; tool H0.120 W0.500
G1 X117.663 Y77.580 E1.8610
G1 X117.663 Y106.880 E2.5480
G92 E0
G1 E-0.8000 F1500
; layer 11, Z = 1.416
; tool H0.120 W0.400
G1 X68.163 Y106.880 F4800
G1 Z1.416 F1000
G1 E0.0000 F1500
G92 E0
; tool H0.120 W0.500
G1 X68.163 Y77.580 E0.6870 F434
G1 X68.163 Y77.500 E0.6889
; tool H0.120 W0.510
G1 X68.173 Y77.401 E0.6913
; tool H0.120 W0.553
G1 X68.206 Y77.293 E0.6942
G1 X68.314 Y77.260 E0.6971
; tool H0.120 W0.510
G1 X68.413 Y77.250 E0.6995
; tool H0.120 W0.500
G1 X68.493 Y77.250 E0.7014
G1 X117.333 Y77.250 E1.8466
G1 X117.413 Y77.250 E1.8485
; tool H0.120 W0.510
G1 X117.512 Y77.260 E1.8509
; tool H0.120 W0.553
G1 X117.620 Y77.293 E1.8538
G1 X117.653 Y77.401 E1.8567
; tool H0.120 W0.510
G1 X117.663 Y77.500 E1.8591
; tool H0.120 W0.500
G1 X117.663 Y77.580 E1.8610
G1 X117.663 Y106.880 E2.5480
G92 E0
G1 E-0.8000 F1500
; layer 12, Z = 1.536
; tool H0.120 W0.400
G1 X68.163 Y106.880 F4800
G1 Z1.536 F1000
G1 E0.0000 F1500
G92 E0
; tool H0.120 W0.500
G1 X68.163 Y77.580 E0.6870 F434
G1 X68.163 Y77.500 E0.6889
; tool H0.120 W0.510
G1 X68.173 Y77.401 E0.6913
; tool H0.120 W0.553
G1 X68.206 Y77.293 E0.6942
G1 X68.314 Y77.260 E0.6971
; tool H0.120 W0.510
G1 X68.413 Y77.250 E0.6995
; tool H0.120 W0.500
G1 X68.493 Y77.250 E0.7014
G1 X117.333 Y77.250 E1.8466
G1 X117.413 Y77.250 E1.8485
; tool H0.120 W0.510
G1 X117.512 Y77.260 E1.8509
; tool H0.120 W0.553
G1 X117.620 Y77.293 E1.8538
G1 X117.653 Y77.401 E1.8567
; tool H0.120 W0.510
G1 X117.663 Y77.500 E1.8591
; tool H0.120 W0.500
G1 X117.663 Y77.580 E1.8610
G1 X117.663 Y106.880 E2.5480
G92 E0
G1 E-0.8000 F1500
; layer 13, Z = 1.656
; tool H0.120 W0.400
G1 X68.163 Y106.880 F4800
G1 Z1.656 F1000
G1 E0.0000 F1500
G92 E0
; tool H0.120 W0.500
